packages/foundations/assets/icons/functional/images/layout/zoom_out.svg

<svg xmlns="http://www.w3.org/2000/svg" width="32" height="32" fill="none"><path fill="#1A1C1F" fill-rule="evenodd" d="M10.933 2.058c-.073.012-.313.048-.533.079-1.323.188-2.781.766-4.005 1.588-2.312 1.554-3.86 4.018-4.294 6.84-.113.733-.113 2.137 0 2.87.68 4.42 4.05 7.789 8.464 8.463.736.113 2.141.113 2.87.001a10.4 10.4 0 0 0 3.11-.993c.525-.263 1.521-.894 1.644-1.042.035-.042.091-.077.124-.077s2.34 2.278 5.127 5.062c4.569 4.566 5.089 5.069 5.296 5.123.437.115.958-.141 1.185-.581.09-.177.079-.652-.02-.838-.044-.084-2.338-2.409-5.098-5.166s-5.016-5.041-5.016-5.074.035-.089.077-.124c.148-.123.779-1.119 1.042-1.644.5-.999.825-2.016.993-3.11.112-.729.112-2.133-.001-2.875-.426-2.801-1.985-5.285-4.293-6.835a10.1 10.1 0 0 0-3.853-1.572c-.425-.08-2.496-.15-2.819-.095m1.932 2.001c1.861.2 3.54 1.027 4.862 2.395 1.324 1.37 2.05 2.955 2.229 4.863.212 2.267-.584 4.516-2.191 6.191-1.175 1.225-2.508 1.968-4.196 2.341-.767.169-2.371.169-3.138 0-1.684-.372-3.009-1.11-4.193-2.336a7.89 7.89 0 0 1-2.193-6.208q.277-2.961 2.403-5.027c1.735-1.687 4.019-2.477 6.417-2.219m-5.079 6.977c-.416.129-.629.337-.748.735-.138.461.189 1.031.676 1.177.314.094 8.258.094 8.572 0 .487-.146.814-.716.676-1.177-.094-.313-.241-.5-.5-.639l-.222-.119-4.16-.009c-2.288-.005-4.22.009-4.294.032"/></svg>

<svg width="32" height="32" viewBox="0 0 32 32" fill="none" xmlns="http://www.w3.org/2000/svg"><path d="M10.933 2.058 C 10.860 2.070,10.620 2.106,10.400 2.137 C 9.077 2.325,7.619 2.903,6.395 3.725 C 4.083 5.279,2.535 7.743,2.101 10.565 C 1.988 11.298,1.988 12.702,2.101 13.435 C 2.781 17.855,6.151 21.224,10.565 21.898 C 11.301 22.011,12.706 22.011,13.435 21.899 C 14.529 21.731,15.546 21.406,16.545 20.906 C 17.070 20.643,18.066 20.012,18.189 19.864 C 18.224 19.822,18.280 19.787,18.313 19.787 C 18.346 19.787,20.653 22.065,23.440 24.849 C 28.009 29.415,28.529 29.918,28.736 29.972 C 29.173 30.087,29.694 29.831,29.921 29.391 C 30.011 29.214,30.000 28.739,29.901 28.553 C 29.857 28.469,27.563 26.144,24.803 23.387 C 22.044 20.629,19.787 18.346,19.787 18.313 C 19.787 18.280,19.822 18.224,19.864 18.189 C 20.012 18.066,20.643 17.070,20.906 16.545 C 21.406 15.546,21.731 14.529,21.899 13.435 C 22.011 12.706,22.011 11.302,21.898 10.560 C 21.472 7.759,19.913 5.275,17.605 3.725 C 16.424 2.932,15.171 2.421,13.752 2.153 C 13.327 2.073,11.256 2.003,10.933 2.058 M12.865 4.059 C 14.726 4.259,16.405 5.086,17.727 6.454 C 19.051 7.824,19.777 9.409,19.956 11.317 C 20.168 13.584,19.372 15.833,17.765 17.508 C 16.590 18.733,15.257 19.476,13.569 19.849 C 12.802 20.018,11.198 20.018,10.431 19.849 C 8.747 19.477,7.422 18.739,6.238 17.513 C 4.633 15.851,3.832 13.584,4.045 11.305 C 4.230 9.330,5.030 7.656,6.448 6.278 C 8.183 4.591,10.467 3.801,12.865 4.059 M7.786 11.036 C 7.370 11.165,7.157 11.373,7.038 11.771 C 6.900 12.232,7.227 12.802,7.714 12.948 C 8.028 13.042,15.972 13.042,16.286 12.948 C 16.773 12.802,17.100 12.232,16.962 11.771 C 16.868 11.458,16.721 11.271,16.462 11.132 L 16.240 11.013 12.080 11.004 C 9.792 10.999,7.860 11.013,7.786 11.036 " fill="#1A1C1F" stroke="none" fill-rule="evenodd"></path></svg>
